build/category/HugeProcentOutline.svg

<svg xmlns="http://www.w3.org/2000/svg" fill="none" viewBox="0 0 24 24" focusable="false"><path d="M0 0H24V24H0z"/><path fill="#74767B" fill-rule="evenodd" d="M6.46565 3.99647L8.32156 7.96603C7.18036 9.77866 5 13.561 5 16C5 19.625 8 21 12 21C16 21 19 19.625 19 16C19 13.5608 16.8193 9.77805 15.6782 7.96559L17.5339 3.99647C17.7509 3.53234 17.4121 3 16.8998 3L7.09976 3C6.58741 3 6.24865 3.53234 6.46565 3.99647ZM15.9569 4.3L8.04262 4.3L9.30497 7L14.6946 7L15.9569 4.3ZM9.47342 8.57671C9.53627 8.47742 9.59544 8.38496 9.65027 8.3L14.3498 8.3C14.4046 8.38496 14.4638 8.47742 14.5266 8.57671C14.8903 9.15125 15.3739 9.94856 15.8557 10.8423C16.3393 11.7394 16.81 12.7131 17.157 13.6432C17.5115 14.5936 17.7 15.4029 17.7 16C17.7 17.3841 17.1637 18.2133 16.3012 18.7632C15.3505 19.3692 13.8879 19.7 12 19.7C10.1121 19.7 8.64947 19.3692 7.69882 18.7632C6.83632 18.2133 6.3 17.3841 6.3 16C6.3 15.4029 6.48852 14.5936 6.84302 13.6432C7.18998 12.7131 7.66069 11.7394 8.14431 10.8423C8.62614 9.94857 9.10969 9.15126 9.47342 8.57671ZM10.0004 13.0033C10.552 13.0033 10.9991 12.5561 10.9991 12.0045C10.9991 11.4529 10.552 11.0057 10.0004 11.0057C9.44875 11.0057 9.00158 11.4529 9.00158 12.0045C9.00158 12.5561 9.44875 13.0033 10.0004 13.0033ZM15.0051 11.9517C15.2349 12.2275 15.1977 12.6374 14.9219 12.8672L9.4177 17.4437C9.14192 17.6735 8.73205 17.6362 8.50224 17.3604C8.27242 17.0847 8.30968 16.6748 8.58546 16.445L14.0896 11.8685C14.3654 11.6387 14.7753 11.676 15.0051 11.9517ZM14.9991 17.0017C14.9991 17.5533 14.552 18.0005 14.0004 18.0005C13.4487 18.0005 13.0016 17.5533 13.0016 17.0017C13.0016 16.4501 13.4487 16.0029 14.0004 16.0029C14.552 16.0029 14.9991 16.4501 14.9991 17.0017Z"/></svg>

<svg xmlns="http://www.w3.org/2000/svg" fill="none" viewBox="0 0 24 24" focusable="false"><path fill="#74767B" fill-rule="evenodd" d="m6.46 3.99 1.86 3.97C7.18 9.77 5 13.56 5 16c0 3.62 3 5 7 5s7-1.38 7-5c0-2.44-2.19-6.23-3.33-8.04l1.86-3.97a.695.695 0 0 0-.64-.99h-9.8c-.51 0-.85.53-.63.99m9.49.3H8.04L9.3 7h5.39zM9.47 8.57c.06-.1.12-.19.18-.28h4.69a34.214 34.214 0 0 1 1.51 2.55c.48.89.96 1.87 1.3 2.8.36.95.55 1.76.55 2.36 0 1.38-.54 2.21-1.4 2.76-.95.6-2.42.94-4.3.94-1.89 0-3.36-.34-4.31-.94-.86-.55-1.4-1.38-1.4-2.76 0-.6.19-1.41.55-2.36.34-.93.82-1.91 1.3-2.8.48-.9.96-1.69 1.33-2.27M10 13c.55 0 .99-.45.99-1A.994.994 0 1 0 9 12c0 .55.44 1 1 1m5-1.05c.23.27.19.68-.08.91l-5.51 4.58a.65.65 0 0 1-.83-1l5.5-4.58c.28-.23.69-.19.92.09M14.99 17A.994.994 0 1 1 13 17a.994.994 0 1 1 1.99 0"/></svg>
